X: 16
T: Sean Bui
Z: Graham Glendinning
S: https://thesession.org/tunes/235#setting46259
R: jig
M: 6/8
L: 1/8
K: Dmaj
A|D.F/.G/A AFA|BGB AFA|D.F/.G/A AFA|Bec dAF|
D.F/.G/A AFA|BGB AFA|dfd ecA|B2c d2A|
D.F/.G/A AFA|BGB AFA|D.F/.G/A AFA|Bec dAF|
D.F/.G/A AFA|BGB AFA|dfd ecA|B2c d2A|
dfd ecA|d3/2c/B AFA|dfd ecA|B2c d2A|
dfd ecA|d3/2c/B AFA|D.F/.G/A AFA|B2c d2A|
dfd ecA|Bcd AFA|dfd eAA/A/|ABc d2f/g/|
afa gfe|d3/2c/B AFA|D.F/.G/A AFA|B2c d3||

